X:9
T:Digas-m, Mo Pitchoto
M:2/4
L:1/8
N:Assez anim
N:La Bourre 4th edition 1929, page 27
Z:Steve Mansfield www.lesession.co.uk April 2012
K:Am
zE | A G A B | c2 B2 | e ^f e d |
e3 e | d e g =f | d3 c | B A B c | (BA) (E2 |
E3) E | A B c d | (3 e f e d d | c2 B2 | A4 |]

